package/converter/svg/thin/u.svg

<svg xmlns="http://www.w3.org/2000/svg" viewBox="0 0 384 512"><!-- Font Awesome Pro 6.0.0-alpha2 by @fontawesome - https://fontawesome.com License - https://fontawesome.com/license (Commercial License) --><path d="M192 480C86.125 480 0 393.875 0 288V40C0 35.594 3.578 32 8 32S16 35.594 16 40V288C16 385.031 94.953 464 192 464S368 385.031 368 288V40C368 35.594 371.578 32 376 32S384 35.594 384 40V288C384 393.875 297.875 480 192 480Z"/></svg>

<svg xmlns="http://www.w3.org/2000/svg" viewBox="0 0 384 512"><!--! Font Awesome Pro 6.6.0 by @fontawesome - https://fontawesome.com License - https://fontawesome.com/license (Commercial License) Copyright 2024 Fonticons, Inc. --><path d="M8 32c4.4 0 8 3.6 8 8l0 248c0 97.2 78.8 176 176 176s176-78.8 176-176l0-248c0-4.4 3.6-8 8-8s8 3.6 8 8l0 248c0 106-86 192-192 192S0 394 0 288L0 40c0-4.4 3.6-8 8-8z"/></svg>
